svg/regular/bx-money-withdraw.svg

<svg xmlns="http://www.w3.org/2000/svg" width="24" height="24"><path d="M12 15c-1.84 0-2-.86-2-1H8c0 .92.66 2.55 3 2.92V18h2v-1.08c2-.34 3-1.63 3-2.92 0-1.12-.52-3-4-3-2 0-2-.63-2-1s.7-1 2-1 1.39.64 1.4 1h2A3 3 0 0 0 13 7.12V6h-2v1.09C9 7.42 8 8.71 8 10c0 1.12.52 3 4 3 2 0 2 .68 2 1s-.62 1-2 1z"/><path d="M5 2H2v2h2v17a1 1 0 0 0 1 1h14a1 1 0 0 0 1-1V4h2V2H5zm13 18H6V4h12z"/></svg>

<svg xmlns="http://www.w3.org/2000/svg" width="24" height="24" viewBox="0 0 24 24"><path d="M12,15c-1.84,0-2-.86-2-1H8c0,.92.66,2.55,3,2.92V18h2V16.92c2-.34,3-1.63,3-2.92,0-1.12-.52-3-4-3-2,0-2-.63-2-1s.7-1,2-1,1.39.64,1.4,1h2A3,3,0,0,0,13,7.12V6H11V7.09C9,7.42,8,8.71,8,10c0,1.12.52,3,4,3,2,0,2,.68,2,1S13.38,15,12,15Z"/><path d="M5,2H2V4H4V21a1,1,0,0,0,1,1H19a1,1,0,0,0,1-1V4h2V2H5ZM18,20H6V4H18Z"/></svg>
